X: 371
M: C
L: 1/8
K: F
V: 1
c |\
(A/B/c) Fc A2Ac | dFcF AGGc |\
(A/B/c) Fc A2Ac | d>efc A/A/A A :|\
|: c |\
d>efc A/A/A (.a.g) | fdcA cGGc |
d>efc A/A/A ag | (Tfef)c A/A/A Ac |\
d>efc A/A/A ag | fdcA cGGA |\
V: 2 clef=bass middle=d
z |\
f2f2 f2f2 | f2f2 g2g2 |\
f2f2 f2f2 | B2c2 F2F :|\
|: z |\
f2f2 f2f2 |
f2f2 g2g2 |\
f2f2 f2f2 | c2c2 F2F2 |\
f2f2 f2f2 | f2f2 g2g2 |\
f2f2 f2f2 | c2c2 F2F |]

